src/pos-icons/send-check.svg

<svg height="24" viewBox="0 0 24 24" width="24" xmlns="http://www.w3.org/2000/svg"><path d="m2 3v7l15 2-15 2v7l21-9m-1 3.5-3.5 3.5-2-2-1.5 1.5 3.5 3.5 5-5z"/></svg>

<?xml version="1.0" encoding="UTF-8"?><!DOCTYPE svg PUBLIC "-//W3C//DTD SVG 1.1//EN" "http://www.w3.org/Graphics/SVG/1.1/DTD/svg11.dtd"><svg xmlns="http://www.w3.org/2000/svg" xmlns:xlink="http://www.w3.org/1999/xlink" version="1.1" id="mdi-send-check" width="24" height="24" viewBox="0 0 24 24"><path d="M2 3V10L17 12L2 14V21L23 12M22 15.5L18.5 19L16.5 17L15 18.5L18.5 22L23.5 17Z" /></svg>
